X:551
T: WENNS KIRMSE WIRD
N: E1832
O: Europa, Mitteleuropa, Deutschland, Thueringen
R: Kinder - Lied, Tanz
M: 2/4
L: 1/16
K: G
GB | d2d2d2GB | d2d2d2
d2 | e2e2g2ee | d4z2
d2 | d2ccccc2 | c2BBBB
B2 | B2A2B2A2 | G4z2

@@@ Tune index: 5235
